hero/solid/eye.svg

<svg width="24" height="24" viewBox="0 0 24 24" fill="none" xmlns="http://www.w3.org/2000/svg">
<path d="M12 15C13.6569 15 15 13.6569 15 12C15 10.3431 13.6569 9 12 9C10.3431 9 9 10.3431 9 12C9 13.6569 10.3431 15 12 15Z" fill="#0F172A"/>
<path fill-rule="evenodd" clip-rule="evenodd" d="M1.32341 11.4467C2.81066 6.97571 7.02791 3.75 12.0005 3.75C16.9708 3.75 21.1864 6.97271 22.6755 11.4405C22.7959 11.8015 22.796 12.1922 22.6759 12.5533C21.1886 17.0243 16.9714 20.25 11.9988 20.25C7.02847 20.25 2.81284 17.0273 1.32374 12.5595C1.2034 12.1985 1.20328 11.8078 1.32341 11.4467ZM17.25 12C17.25 14.8995 14.8995 17.25 12 17.25C9.1005 17.25 6.75 14.8995 6.75 12C6.75 9.1005 9.1005 6.75 12 6.75C14.8995 6.75 17.25 9.1005 17.25 12Z" fill="#0F172A"/>
</svg>

<svg viewBox="0 0 24 24" xmlns="http://www.w3.org/2000/svg"><g><path d="M12 15v0c1.65 0 3-1.35 3-3 0-1.66-1.35-3-3-3v0c-1.66 0-3 1.34-3 3 0 1.65 1.34 3 3 3Z"/><path fill-rule="evenodd" d="M1.32 11.447c1.48-4.48 5.705-7.7 10.67-7.7 4.97 0 9.185 3.22 10.67 7.69 .12.36.12.75 0 1.11 -1.49 4.47-5.71 7.69-10.677 7.69 -4.97 0-9.186-3.23-10.675-7.69h0c-.13-.37-.13-.76 0-1.12Zm15.927.55v0c0 2.89-2.36 5.25-5.25 5.25 -2.9 0-5.25-2.36-5.25-5.25v0c0-2.9 2.35-5.25 5.25-5.25 2.89 0 5.25 2.35 5.25 5.25Z"/></g></svg>
